svgs/thin/transporter-2.svg

<svg xmlns="http://www.w3.org/2000/svg" viewBox="0 0 512 512"><!--! Font Awesome Pro 6.3.0 by @fontawesome - https://fontawesome.com License - https://fontawesome.com/license (Commercial License) Copyright 2023 Fonticons, Inc. --><path d="M320 320H192c-4.406 0-8 3.578-8 8S187.6 336 192 336h128c4.406 0 8-3.578 8-8S324.4 320 320 320zM104 272h304C412.4 272 416 268.4 416 264S412.4 256 408 256h-304C99.59 256 96 259.6 96 264S99.59 272 104 272zM256 96c26.5 0 48-21.5 48-48S282.5 0 256 0S208 21.5 208 48S229.5 96 256 96zM256 16c17.64 0 32 14.36 32 32s-14.36 32-32 32s-32-14.36-32-32S238.4 16 256 16zM130.1 224c2.373 0 4.623-1.053 6.143-2.875l49.99-59.91C195.3 150.3 208.7 144 223 144h66c14.32 0 27.74 6.273 36.84 17.25l49.96 59.88C377.3 222.9 379.6 224 381.9 224c6.785 0 10.49-7.916 6.143-13.12L338.2 151C326.1 136.4 308 128 289 128h-66C204 128 185.1 136.4 173.9 151L123.9 210.9C119.6 216.1 123.3 224 130.1 224zM320 384H192c-4.406 0-8 3.578-8 8S187.6 400 192 400h128c4.406 0 8-3.578 8-8S324.4 384 320 384zM376 448h-240C113.9 448 96 465.9 96 488v16C96 508.4 99.59 512 104 512s8-3.578 8-8v-16c0-13.23 10.78-24 24-24h240c13.22 0 24 10.77 24 24v16c0 4.422 3.594 8 8 8S416 508.4 416 504v-16C416 465.9 398.1 448 376 448zM504 360h-32v-32c0-4.422-3.594-8-8-8s-8 3.578-8 8v32h-32c-4.406 0-8 3.578-8 8s3.594 8 8 8h32v32c0 4.422 3.594 8 8 8s8-3.578 8-8v-32h32c4.406 0 8-3.578 8-8S508.4 360 504 360zM88 40h-32v-32C56 3.578 52.41 0 48 0S40 3.578 40 8v32h-32C3.594 40 0 43.58 0 48s3.594 8 8 8h32v32C40 92.42 43.59 96 48 96s8-3.578 8-8v-32h32C92.41 56 96 52.42 96 48S92.41 40 88 40z"/></svg>

<svg xmlns="http://www.w3.org/2000/svg" viewBox="0 0 512 512"><!-- Font Awesome Pro 6.0.0-alpha2 by @fontawesome - https://fontawesome.com License - https://fontawesome.com/license (Commercial License) --><path d="M320 320H192C188 320 184 324 184 328S188 336 192 336H320C324 336 328 332 328 328S324 320 320 320ZM104 272H408C412 272 416 268 416 264S412 256 408 256H104C100 256 96 260 96 264S100 272 104 272ZM256 96C282 96 304 74 304 48S282 0 256 0S208 22 208 48S230 96 256 96ZM256 16C274 16 288 30 288 48S274 80 256 80S224 66 224 48S238 16 256 16ZM130 224C132 224 135 223 136 221L186 161C195 150 209 144 223 144H289C303 144 317 150 326 161L376 221C377 223 380 224 382 224C389 224 392 216 388 211L338 151C326 136 308 128 289 128H223C204 128 186 136 174 151L124 211C120 216 123 224 130 224ZM320 384H192C188 384 184 388 184 392S188 400 192 400H320C324 400 328 396 328 392S324 384 320 384ZM376 448H136C114 448 96 466 96 488V504C96 508 100 512 104 512S112 508 112 504V488C112 475 123 464 136 464H376C389 464 400 475 400 488V504C400 508 404 512 408 512S416 508 416 504V488C416 466 398 448 376 448ZM504 360H472V328C472 324 468 320 464 320S456 324 456 328V360H424C420 360 416 364 416 368S420 376 424 376H456V408C456 412 460 416 464 416S472 412 472 408V376H504C508 376 512 372 512 368S508 360 504 360ZM88 40H56V8C56 4 52 0 48 0S40 4 40 8V40H8C4 40 0 44 0 48S4 56 8 56H40V88C40 92 44 96 48 96S56 92 56 88V56H88C92 56 96 52 96 48S92 40 88 40Z"/></svg>
